src/img/soil-moisture.svg

<svg width="13" height="10" viewBox="0 0 13 10" fill="none" xmlns="http://www.w3.org/2000/svg">
<path d="M8.00004 7.46166C7.9982 7.73036 8.06789 7.99441 8.2015 8.22499C8.33376 8.45823 8.52187 8.65244 8.74777 8.78899C8.97298 8.9279 9.23058 9.00084 9.49292 8.99999C9.75693 9.00042 10.0162 8.92754 10.2436 8.78899C10.4717 8.65337 10.6619 8.45906 10.7956 8.22499C10.9312 7.98733 11 7.735 11 7.46166C11 7.28366 10.9509 7.07266 10.8505 6.82633C10.7534 6.58596 10.6319 6.35691 10.488 6.143C10.3443 5.95202 10.1946 5.76592 10.0392 5.585C9.86678 5.383 9.56459 5.07133 9.49582 5L9.12777 5.38333C8.93881 5.57302 8.76648 5.7796 8.61281 6.00066C8.44662 6.23827 8.30304 6.49189 8.18406 6.758C8.0575 7.028 8.00004 7.26266 8.00004 7.46166Z" fill="white"/>
<path d="M12 1.5H3.5H1" stroke="white" stroke-linecap="round"/>
<circle cx="2.5" cy="4.5" r="0.5" fill="white"/>
<circle cx="6.5" cy="3.5" r="0.5" fill="white"/>
<circle cx="5.5" cy="6.5" r="0.5" fill="white"/>
<circle cx="2.5" cy="8.5" r="0.5" fill="white"/>
</svg>

<svg xmlns="http://www.w3.org/2000/svg" width="13" height="10" fill="none"><path fill="#fff" d="M8 7.462a1.55 1.55 0 0 0 .748 1.327 1.44 1.44 0 0 0 1.496 0c.228-.136.418-.33.552-.564A1.5 1.5 0 0 0 11 7.462q0-.267-.15-.636a3.7 3.7 0 0 0-.362-.683 11 11 0 0 0-.449-.558A15 15 0 0 0 9.496 5l-.368.383q-.285.286-.515.618a4.6 4.6 0 0 0-.429.757c-.127.27-.184.505-.184.704"/><path stroke="#fff" stroke-linecap="round" d="M12 1.5H1"/><circle cx="2.5" cy="4.5" r=".5" fill="#fff"/><circle cx="6.5" cy="3.5" r=".5" fill="#fff"/><circle cx="5.5" cy="6.5" r=".5" fill="#fff"/><circle cx="2.5" cy="8.5" r=".5" fill="#fff"/></svg>
